X:1
T:Title
T:Doxologie
T:Lowell Mason  
C:Composer
%%score 1 2
L:1/8
Q:1/2=70
M:2/2
K:Ab
V:1 treble nm="Piano" snm="Pno."
V:2 treble nm="Piano" snm="Pia."
V:1
 c3 d e2 e2 | (f4 e2) d2 | (cdcd) e2 d2 | c4 B4 | A8 ||!f!!f! A4 A2 A2 | c4 c4 | B2 c2 d2 B2 | %8
 c6 z2 | E4 F2 G2 | A4 (B2 c2) | d4 c4 | B6 z2 | z2 B2 c2 =d2 | (e2 c2) (B2 A2) | G4 F4 | E6 z2 | %17
!mf! c4 c2 B2 | A4 z4 |"_cresc." d4 d2 c2 | B4 z4 | e4 e2 d2 | c6 c2 | (f2 d2) (B2 A2) | A4 G2 z2 | %25
!f! !>!e4 !>!e2 !>!e2 | !>!e4 z4 | !>!f4 !>!f2 !>!f2 | !>!f4 z4 | e4 (cdcd) | e4 d2 c2 | %31
 B2 A2 B2 c2 | B4 z2 E2 | A6 B2 | c6 B2 | c6 =d2 | e6 e2 | (f4 e2 d2) | (cdcd) e2 d2 | c4 B4 | %40
 c3 d e2 e2 | f4 e2 d2 | (cdcd) e2 d2 | c4 B4 | A6 z2 | e4 e2 e2 | e4 z4 | f4 f2 f2 | f4 z4 | %49
 e4 (cdcd) | e4 d2 c2 | B2 A2 B2 c2 | B4 z2 E2 | A6 B2 | c6 B2 | c6 =d2 | e6 e2 | (f4 e2 d2) | %58
 (cdcd) e2 d2 | c4 B4 | c3 d e2 e2 | (f4 e2) d2 | (cdcd) e2 d2 | c4 B4 |[M:3/4] A2 z2 A>A |: %65
[Q:1/4=120] A2 A2 c>c | c2 c2 e>e | e2 d2 c2 | B2 z2!p! c2 | B2 z2 B>B | c2 c2 c>d | e7/2 f/ e>d | %72
 d2 c2 B>c | d7/2 c/ d>c | c2 B2 E>E | A2 A2 A>A | B2 B2 B>B | c2 c2 c2 | d2 z2 B2 | c2 z2 A>A | %80
 B2 c2 d2 | c2 z2 A>A |1 B2 A2 G2 || A2 z2 A>A :|2 B2 A2 G2 || A2 z2 A>A | (Bc/d/ e2) e2 | %87
!ff! a6- | !fermata!a6 |] %89
V:2
 A3 A A2 A2 | A6 F2 | E6 D2 | E4 (E2 D2) | C8 ||!f! E4 E2 E2 | A4 A4 | F2 A2 A2 G2 | A6 z2 | %9
 E4 D2 E2 | E4 E4 | E4 E4 | E6 z2 | E4 E2 A2 | (G2 E2) E4 | E4 =D4 | E6 z2 |!mf! A4 A2 G2 | %18
 F4 F2 E2 |"_cresc." D4 z4 | G4 G2 F2 | E4 z4 | A4 A2 G2 | F2 F2 F2 F2 | E4 E2 z2 |!f! A4 A2 A2 | %26
 A4 z4 | A4 A2 A2 | A4 z4 | E4 E2 EE | E4 E2 E2 | E2 E2 E2 E2 | E4 z2 E2 | z2 E2 E2 E2 | E6 z2 | %35
 z2 E2 E2 A2 | G2 G2 G2 A2 | A8 | A4 A2 A2 | A4 G4 | A3 A A2 A2 | A6 F2 | E6 D2 | E4 (E2 D2) | %44
 C6 z2 | A4 A2 A2 | A4 z4 | A4 A2 A2 | A4 z4 | E4 E2 EE | E4 E2 E2 | E2 E2 E2 E2 | E4 z2 E2 | %53
 z2 E2 E2 E2 | E6 z2 | z2 E2 E2 A2 | G2 G2 G2 A2 | A8 | A4 A2 A2 | A4 G4 | A3 A A2 A2 | A6 F2 | %62
 E6 D2 | E4 (E2 D2) |[M:3/4] C2 z2 E>E |: E2 E2 A>A | A2 A2 c>B | A2 B2 A2 | G2 z2!p! E2 | %69
 E2 z2 E>E | E2 E2 A>B | c7/2 d/ c>B | B2 A2 G>A | B7/2 =A/ B>_A | A2 G2 E>E | E2 E2 A>A | %76
 G2 E2 E>E | E2 E2 (A_G) | F2 z2 G2 | A2 z2 A>A | F2 A2 G2 | A2 z2 A>A |1 F2 E2 E2 || E2 z2 A>A :|2 %84
 F2 E2 E2 || E2 z2 A>A | F2 E2 E2 |!ff! E6- | !fermata!E6 |] %89

